img/toolbar.svg

<?xml version="1.0" encoding="UTF-8" standalone="no"?>
<svg width="24px" height="120px" viewBox="0 0 24 120" version="1.1" xmlns="http://www.w3.org/2000/svg" xmlns:xlink="http://www.w3.org/1999/xlink" xmlns:sketch="http://www.bohemiancoding.com/sketch/ns">
    <title>Slice 1</title>
    <description>Created with Sketch (http://www.bohemiancoding.com/sketch)</description>
    <defs></defs>
    <g id="Page 1" stroke="none" stroke-width="1" fill="none" fill-rule="evenodd">
        <path d="M14,5 C14,4.471 13.5,4 13,4 L5,4 C4.46,4 4,4.46 4,5 L4,19 C4,19.529 4.5,20 5,20 L12.59,20 L9.59,17 L6,17 L6,6 L12,6 L12,13.721 L14,11.721 L14,5 L14,5 Z M9,19 L8,19 L8,18 L9,18 L9,19 L9,19 Z M15.95,16.529 C15.95,16.84 16.2,17.099 16.51,17.099 C16.811,17.099 17.061,16.839 17.061,16.529 C17.061,16.22 16.811,15.97 16.51,15.97 C16.2,15.971 15.95,16.221 15.95,16.529 L15.95,16.529 Z M17.061,19.88 C18.88,19.471 21.721,16.94 21.721,16.94 C21.721,16.94 19.721,13.44 16.91,13.251 C16.75,13.241 16.2,13.231 16.099,13.231 C13.41,13.38 11.22,17.04 11.22,17.04 C11.22,17.04 13.599,19.5 15.81,19.88 C16.07,19.93 16.91,19.939 17.061,19.88 L17.061,19.88 Z M13.811,16.561 C13.811,15.151 15.03,13.94 16.5,13.94 C17.97,13.94 19.13,15.151 19.13,16.561 C19.13,17.971 17.88,19.231 16.42,19.231 C14.95,19.23 13.811,17.971 13.811,16.561 L13.811,16.561 Z M13.811,16.561" id="Shape" fill="#BBBBBB"></path>
        <path d="M14,29 C14,28.471 13.5,28 13,28 L5,28 C4.46,28 4,28.46 4,29 L4,43 C4,43.529 4.5,44 5,44 L12.59,44 L9.59,41 L6,41 L6,30 L12,30 L12,37.721 L14,35.721 L14,29 L14,29 Z M9,43 L8,43 L8,42 L9,42 L9,43 L9,43 Z M15.95,40.529 C15.95,40.84 16.2,41.099 16.51,41.099 C16.811,41.099 17.061,40.839 17.061,40.529 C17.061,40.22 16.811,39.97 16.51,39.97 C16.2,39.971 15.95,40.221 15.95,40.529 L15.95,40.529 Z M17.061,43.88 C18.88,43.471 21.721,40.94 21.721,40.94 C21.721,40.94 19.721,37.44 16.91,37.251 C16.75,37.241 16.2,37.231 16.099,37.231 C13.41,37.38 11.22,41.041 11.22,41.041 C11.22,41.041 13.599,43.501 15.81,43.881 C16.07,43.93 16.91,43.939 17.061,43.88 L17.061,43.88 Z M13.811,40.561 C13.811,39.151 15.03,37.94 16.5,37.94 C17.97,37.94 19.13,39.151 19.13,40.561 C19.13,41.971 17.88,43.231 16.42,43.231 C14.95,43.23 13.811,41.971 13.811,40.561 L13.811,40.561 Z M13.811,40.561" id="Shape" fill="#91CC41"></path>
        <path d="M14,53 C14,52.471 13.5,52 13,52 L5,52 C4.46,52 4,52.46 4,53 L4,67 C4,67.529 4.5,68 5,68 L12.59,68 L9.59,65 L6,65 L6,54 L12,54 L12,61.721 L14,59.721 L14,53 L14,53 Z M9,67 L8,67 L8,66 L9,66 L9,67 L9,67 Z M15.95,64.529 C15.95,64.84 16.2,65.099 16.51,65.099 C16.811,65.099 17.061,64.839 17.061,64.529 C17.061,64.22 16.811,63.97 16.51,63.97 C16.2,63.971 15.95,64.221 15.95,64.529 L15.95,64.529 Z M17.061,67.88 C18.88,67.471 21.721,64.94 21.721,64.94 C21.721,64.94 19.721,61.44 16.91,61.251 C16.75,61.241 16.2,61.231 16.099,61.231 C13.41,61.38 11.22,65.041 11.22,65.041 C11.22,65.041 13.599,67.501 15.81,67.881 C16.07,67.93 16.91,67.939 17.061,67.88 L17.061,67.88 Z M13.811,64.561 C13.811,63.151 15.03,61.94 16.5,61.94 C17.97,61.94 19.13,63.151 19.13,64.561 C19.13,65.971 17.88,67.231 16.42,67.231 C14.95,67.23 13.811,65.971 13.811,64.561 L13.811,64.561 Z M13.811,64.561" id="Shape" fill="#78B2F2"></path>
        <path d="M14,77 C14,76.471 13.5,76 13,76 L5,76 C4.46,76 4,76.46 4,77 L4,91 C4,91.529 4.5,92 5,92 L12.59,92 L9.59,89 L6,89 L6,78 L12,78 L12,85.721 L14,83.721 L14,77 L14,77 Z M9,91 L8,91 L8,90 L9,90 L9,91 L9,91 Z M15.95,88.529 C15.95,88.84 16.2,89.099 16.51,89.099 C16.811,89.099 17.061,88.839 17.061,88.529 C17.061,88.22 16.811,87.97 16.51,87.97 C16.2,87.971 15.95,88.221 15.95,88.529 L15.95,88.529 Z M17.061,91.88 C18.88,91.471 21.721,88.94 21.721,88.94 C21.721,88.94 19.721,85.44 16.91,85.251 C16.75,85.241 16.2,85.231 16.099,85.231 C13.41,85.38 11.22,89.041 11.22,89.041 C11.22,89.041 13.599,91.501 15.81,91.881 C16.07,91.93 16.91,91.939 17.061,91.88 L17.061,91.88 Z M13.811,88.561 C13.811,87.151 15.03,85.94 16.5,85.94 C17.97,85.94 19.13,87.151 19.13,88.561 C19.13,89.971 17.88,91.231 16.42,91.231 C14.95,91.23 13.811,89.971 13.811,88.561 L13.811,88.561 Z M13.811,88.561" id="Shape" fill="#E3B551"></path>
        <path d="M14,101 C14,100.471 13.5,100 13,100 L5,100 C4.46,100 4,100.46 4,101 L4,115 C4,115.529 4.5,116 5,116 L12.59,116 L9.59,113 L6,113 L6,102 L12,102 L12,109.721 L14,107.721 L14,101 L14,101 Z M9,115 L8,115 L8,114 L9,114 L9,115 L9,115 Z M15.95,112.529 C15.95,112.84 16.2,113.099 16.51,113.099 C16.811,113.099 17.061,112.839 17.061,112.529 C17.061,112.22 16.811,111.97 16.51,111.97 C16.2,111.971 15.95,112.221 15.95,112.529 L15.95,112.529 Z M17.061,115.88 C18.88,115.471 21.721,112.94 21.721,112.94 C21.721,112.94 19.721,109.44 16.91,109.251 C16.75,109.241 16.2,109.231 16.099,109.231 C13.41,109.38 11.22,113.041 11.22,113.041 C11.22,113.041 13.599,115.501 15.81,115.881 C16.07,115.93 16.91,115.939 17.061,115.88 L17.061,115.88 Z M13.811,112.561 C13.811,111.151 15.03,109.94 16.5,109.94 C17.97,109.94 19.13,111.151 19.13,112.561 C19.13,113.971 17.88,115.231 16.42,115.231 C14.95,115.23 13.811,113.971 13.811,112.561 L13.811,112.561 Z M13.811,112.561" id="Shape" fill="#F74687"></path>
    </g>
</svg>

<svg xmlns="http://www.w3.org/2000/svg" version="1.1" width="24px" height="120px" viewBox="0 0 24 120"><path fill="#BBBBBB" d="M14 5c0-0.53-0.5-1-1-1H5C4.46 4 4 4.46 4 5v14c0 0.53 0.5 1 1 1h7.59l-3-3H6V6h6v7.72l2-2V5L14 5zM9 19H8v-1h1V19L9 19zM15.95 16.53c0 0.31 0.25 0.57 0.56 0.57 0.3 0 0.55-0.26 0.55-0.57 0-0.31-0.25-0.56-0.55-0.56C16.2 15.97 15.95 16.22 15.95 16.53L15.95 16.53zM17.06 19.88c1.82-0.41 4.66-2.94 4.66-2.94s-2-3.5-4.81-3.69c-0.16-0.01-0.71-0.02-0.81-0.02C13.41 13.38 11.22 17.04 11.22 17.04s2.38 2.46 4.59 2.84C16.07 19.93 16.91 19.94 17.06 19.88L17.06 19.88zM13.81 16.56c0-1.41 1.22-2.62 2.69-2.62s2.63 1.21 2.63 2.62 -1.25 2.67-2.71 2.67C14.95 19.23 13.81 17.97 13.81 16.56L13.81 16.56z"/><path fill="#91CC41" d="M14 29c0-0.53-0.5-1-1-1H5c-0.54 0-1 0.46-1 1v14c0 0.53 0.5 1 1 1h7.59l-3-3H6V30h6v7.72l2-2V29L14 29zM9 43H8v-1h1V43L9 43zM15.95 40.53c0 0.31 0.25 0.57 0.56 0.57 0.3 0 0.55-0.26 0.55-0.57 0-0.31-0.25-0.56-0.55-0.56C16.2 39.97 15.95 40.22 15.95 40.53L15.95 40.53zM17.06 43.88c1.82-0.41 4.66-2.94 4.66-2.94s-2-3.5-4.81-3.69c-0.16-0.01-0.71-0.02-0.81-0.02 -2.69 0.15-4.88 3.81-4.88 3.81s2.38 2.46 4.59 2.84C16.07 43.93 16.91 43.94 17.06 43.88L17.06 43.88zM13.81 40.56c0-1.41 1.22-2.62 2.69-2.62s2.63 1.21 2.63 2.62 -1.25 2.67-2.71 2.67C14.95 43.23 13.81 41.97 13.81 40.56L13.81 40.56z"/><path fill="#78B2F2" d="M14 53c0-0.53-0.5-1-1-1H5c-0.54 0-1 0.46-1 1v14c0 0.53 0.5 1 1 1h7.59l-3-3H6V54h6v7.72l2-2V53L14 53zM9 67H8v-1h1V67L9 67zM15.95 64.53c0 0.31 0.25 0.57 0.56 0.57 0.3 0 0.55-0.26 0.55-0.57 0-0.31-0.25-0.56-0.55-0.56C16.2 63.97 15.95 64.22 15.95 64.53L15.95 64.53zM17.06 67.88c1.82-0.41 4.66-2.94 4.66-2.94s-2-3.5-4.81-3.69c-0.16-0.01-0.71-0.02-0.81-0.02 -2.69 0.15-4.88 3.81-4.88 3.81s2.38 2.46 4.59 2.84C16.07 67.93 16.91 67.94 17.06 67.88L17.06 67.88zM13.81 64.56c0-1.41 1.22-2.62 2.69-2.62s2.63 1.21 2.63 2.62c0 1.41-1.25 2.67-2.71 2.67C14.95 67.23 13.81 65.97 13.81 64.56L13.81 64.56z"/><path fill="#E3B551" d="M14 77c0-0.53-0.5-1-1-1H5c-0.54 0-1 0.46-1 1v14c0 0.53 0.5 1 1 1h7.59l-3-3H6V78h6v7.72l2-2V77L14 77zM9 91H8v-1h1V91L9 91zM15.95 88.53c0 0.31 0.25 0.57 0.56 0.57 0.3 0 0.55-0.26 0.55-0.57 0-0.31-0.25-0.56-0.55-0.56C16.2 87.97 15.95 88.22 15.95 88.53L15.95 88.53zM17.06 91.88c1.82-0.41 4.66-2.94 4.66-2.94s-2-3.5-4.81-3.69c-0.16-0.01-0.71-0.02-0.81-0.02 -2.69 0.15-4.88 3.81-4.88 3.81s2.38 2.46 4.59 2.84C16.07 91.93 16.91 91.94 17.06 91.88L17.06 91.88zM13.81 88.56c0-1.41 1.22-2.62 2.69-2.62s2.63 1.21 2.63 2.62c0 1.41-1.25 2.67-2.71 2.67C14.95 91.23 13.81 89.97 13.81 88.56L13.81 88.56z"/><path fill="#F74687" d="M14 101c0-0.53-0.5-1-1-1H5c-0.54 0-1 0.46-1 1v14c0 0.53 0.5 1 1 1h7.59l-3-3H6v-11h6v7.72l2-2V101L14 101zM9 115H8v-1h1V115L9 115zM15.95 112.53c0 0.31 0.25 0.57 0.56 0.57 0.3 0 0.55-0.26 0.55-0.57 0-0.31-0.25-0.56-0.55-0.56C16.2 111.97 15.95 112.22 15.95 112.53L15.95 112.53zM17.06 115.88c1.82-0.41 4.66-2.94 4.66-2.94s-2-3.5-4.81-3.69c-0.16-0.01-0.71-0.02-0.81-0.02 -2.69 0.15-4.88 3.81-4.88 3.81s2.38 2.46 4.59 2.84C16.07 115.93 16.91 115.94 17.06 115.88L17.06 115.88zM13.81 112.56c0-1.41 1.22-2.62 2.69-2.62s2.63 1.21 2.63 2.62c0 1.41-1.25 2.67-2.71 2.67C14.95 115.23 13.81 113.97 13.81 112.56L13.81 112.56z"/></svg>
